Papirus/24x24/actions/preferences-activities.svg

<?xml version="1.0" encoding="UTF-8" standalone="no"?>
<svg xmlns="http://www.w3.org/2000/svg" viewBox="0 0 24 24">
  <defs>
    <style type="text/css" id="current-color-scheme">
      .ColorScheme-Text {
        color:#5c616c;
      }
      </style>
  </defs>
  <path style="fill:currentColor;opacity:1" class="ColorScheme-Text" transform="translate(4 4)" d="M 8 4 A 4 4 0 0 0 4 8 A 4 4 0 0 0 8 12 A 4 4 0 0 0 12 8 A 4 4 0 0 0 8 4 z M 4 5 C 2.3431 5 1 6.3431 1 8 C 1 9.6569 2.3431 11 4 11 L 4.0273438 10.998047 C 3.3915437 10.159047 3 9.1273 3 8 C 3 6.8717 3.3923969 5.8410531 4.0292969 5.0019531 L 4 5 z M 12 5 C 11.98958 5.0005967 11.97916 5.0012531 11.96875 5.0019531 C 12.60575 5.8411531 13 6.8716 13 8 C 13 9.1274 12.606693 10.159247 11.970703 10.998047 L 12 11 C 13.6569 11 15 9.6569 15 8 C 15 6.3431 13.6569 5 12 5 z "/>
</svg>

<?xml version="1.0" encoding="UTF-8" standalone="no"?>
<!--Created with Inkscape (http://www.inkscape.org/)-->
<svg id="svg7384" xmlns:rdf="http://www.w3.org/1999/02/22-rdf-syntax-ns#" style="enable-background:new" xmlns="http://www.w3.org/2000/svg" height="24" width="24" version="1.1" xmlns:cc="http://creativecommons.org/ns#" xmlns:dc="http://purl.org/dc/elements/1.1/">
 <metadata id="metadata90">
  <rdf:RDF>
   <cc:Work rdf:about="">
    <dc:format>image/svg+xml</dc:format>
    <dc:type rdf:resource="http://purl.org/dc/dcmitype/StillImage"/>
   </cc:Work>
  </rdf:RDF>
 </metadata>
 <g id="layer12" transform="translate(-485 99.007)">
  <g id="g4151" opacity="1" fill="#5c616c" transform="translate(4 4)">
   <path id="circle4140" opacity="1" fill="#5c616c" transform="translate(485 -99.007)" d="m4 5c-1.6569 0-3 1.3431-3 3s1.3431 3 3 3l0.0273-0.002c-0.6358-0.839-1.0273-1.8707-1.0273-2.998 0-1.1283 0.3924-2.1589 1.0293-2.998zm8 0c-0.01 0.0006-0.021 0.0012-0.031 0.002 0.637 0.8392 1.031 1.8696 1.031 2.998 0 1.1274-0.39331 2.1592-1.0293 2.998l0.029 0.002c1.6569 0 3-1.3431 3-3s-1.3431-3-3-3z"/>
   <circle id="path4138" opacity="1" fill="#5c616c" cy="-91.007" cx="493" r="4"/>
  </g>
 </g>
</svg>
